X: 32573
T: Planxty Irwin
R: waltz
M: 3/4
K: Gmajor
|:d|gaf efg|dec BAG|cBA Bcd|EFG A2 d|
gaf efg|dec BAG|cBA Bcd|G2 F G2:|
|:d|gag gfg|aba afd|bc'b age|fge def|
gaf efg|dec BAG|cBA Bcd|G2 F G2:|

